X:1970
T:Boys of Ballinahinch
M:C
L:1/8
K:D Major
e|f2df edBA|f2df gbag|f2df edBc|dBAF EFDe|!
f2df edBA|Bdef gbag|f2df edBc|dBAF EFD:|!
e|faaf d3e|faaf g3e|faaf gfef|gfed BdAe|!
faaf d3e|faaf g3a|bgaf gfed|Bdef g3|]!


